azure-icons/command-1103-Copy.svg

<svg xmlns="http://www.w3.org/2000/svg" viewBox="0 0 14 16"><path d="M14 6.3V16H4v-3H0V0h6.7l3 3h1zM4 3h4.3l-2-2H1v11h3zm9 4h-3V4H5v11h8zm-2-1h1.3L11 4.7z"/></svg>

<svg xmlns="http://www.w3.org/2000/svg" viewBox="0 0 14 16"><title>Asset 32</title><path d="M14,6.3V16H4V13H0V0H6.7l3,3h1ZM4,3H8.3l-2-2H1V12H4Zm9,4H10V4H5V15h8ZM11,6h1.3L11,4.7Z"/></svg>
